X: 10455
T: Donegal Traveller, The
R: reel
M: 4/4
K: Gmajor
G2DG B,GDG|G2BG FGAF|G2DG B,GAB|1 c2dc BdAF:|2 c2dc BGGB||
d3e dBGB|dedB cBAB|d3e dBGB|cEAc BGGB|
d3e dBGB|dedB cBAB|c3d cBAG|Fedc BGAF||

